**kern	**kern	**dynam
*part1	*part1	*part1
*staff2	*staff1	*
*I"Piano	*	*
*clefG2	*clefG2	*
*k[b-]	*k[b-]	*
=1	=1	=1
(8qBBn/	.	mp <
4C)	12r	.
.	12fL 12g 12b- 12ddn	.
.	12eJ 12g 12b- 12cc	.
(8qBn/	.	.
4c)	12r	.
.	12ffL 12gg 12bb- 12ddd	.
.	12eeJ 12gg 12bb- 12ccc	.
=	=	=
4F	12cL	[ p
.	12f	.
.	12aJ	.
4D	12B-L	.
.	12f	.
.	12b-J	.
=	=	=
4AA	12cL	.
.	12f	.
.	12ccJ	.
4BBn	12dL	.
.	12f	.
.	12gJ	.
=	=	=
(4C	12r	.
.	12B-L	.
.	12eJ	.
4D	12gL	.
.	12e	.
.	12B-J	.
=	=	=
4E	12r	.
.	12B-L	.
.	12cJ	.
4C)	12gL	.
.	12c	.
.	12B-J	.
=	=	=
*^	*	*
4F	[2C	12r	<
.	.	12cL 12a	.
.	.	12AJ	.
4F#X	.	12r	.
.	.	12e-XL 12cc	.
.	.	12cJ	.
=	=	=	=
4G	2C]	12r	[ >
.	.	12enL 12b-	.
.	.	12cJ	.
4G#X	.	12r	.
.	.	12fL 12dd	.
.	.	12dJ	.
*v	*v	*	*
=	=	=
*-	*-	*-
!!!system-decoration: {(s1,s2)}
